X:1
T: Enchanted Place
N:
C:Tune is "Planxty Hewlett" by O'Carolan
S:
A:
O:
R:
M:3/4
K:D
I:speed 150
%W: A1
% voice 1 (1 lines, 33 notes)
K:D
M:3/4
L:1/16
A2 F2 |D4 D2 E2 F2 G2 |A2 B2 c4 A4 |d4 f4 f2 g2 |f2 e2 d6 B2 |A4 F4 F4 |G6 B2 A2 G2 |A2 F2 D4 E4 |D8 A2 F2 |
%W: A2
% voice 1 (1 lines, 29 notes)
D4 D2 E2 F2 G2 |A2 B2 c4 A4 |d4 f4 f2 g2 |f2 e2 d6 B2 |A4 F4 F4 |G6 B2 A2 G2 |A2 F2 D4 E4 |D12 |
%W: B1
% voice 1 (1 lines, 35 notes)
A4 F4 A2 B2 |A4 F4 A2 B2 |A4 d4 d4 |d2 c2 B2 A2 G2 F2 |G4 E4 G2 A2 |G4 E4 E2 F2 |G2 F2 G2 B2 A2 G2 |A2 F2 D6 E2 |
%W: B2
% voice 1 (1 lines, 30 notes)
F2 E2 F4 G4 |A2 B2 c4 A4 |f2 e2 f2 g2 a2 g2 |f2 e2 d6 B2 |A4 F4 F4 |G6 B2 A2 G2 |A2 F2 D4 E4 |D8 ||
